packages/static-svg/icons/ai302-color.svg

<svg height="1em" style="flex:none;line-height:1" viewBox="0 0 24 24" width="1em" xmlns="http://www.w3.org/2000/svg"><title>302.AI</title><ellipse cx="13.08642578125" cy="13.067853927612305" fill="#3F3FAA" rx="10.16357421875" ry="10.182111740112305"></ellipse><ellipse cx="10.91357421875" cy="10.932111740112305" fill="#8E47FF" rx="10.16357421875" ry="10.182111740112305"></ellipse><path d="M10.7554 17.7076C10.0333 17.7076 9.33891 17.4683 8.75993 17.0175C8.07397 16.4816 7.63618 15.7077 7.5292 14.8408C7.49616 14.576 7.49424 14.3179 7.52413 14.0594C7.32275 14.0988 7.11706 14.1152 6.90623 14.1152C5.10794 14.1152 3.64453 12.6526 3.64453 10.8526C3.64453 9.05265 5.10951 7.585 6.90623 7.585C7.16268 7.585 7.41004 7.61451 7.65075 7.67126C7.63659 7.54831 7.63049 7.42695 7.63049 7.30085C7.63049 5.49928 9.09547 4.0332 10.8922 4.0332C12.6889 4.0332 14.1488 5.50085 14.1488 7.30085C14.1488 7.40488 14.1447 7.50634 14.1336 7.61037C14.398 7.56466 14.6702 7.54929 14.944 7.56978C16.736 7.70375 18.0862 9.27398 17.9525 11.0708C17.888 11.9409 17.4889 12.7344 16.8281 13.3034C16.1689 13.8724 15.3297 14.1494 14.4628 14.0848C14.3055 14.0737 14.1479 14.0519 13.9969 14.0188C13.9969 14.0267 14.002 14.0328 14.002 14.0391C14.1089 14.9044 13.8734 15.7605 13.3385 16.4493C12.8035 17.1381 12.031 17.5751 11.1657 17.6822C11.0288 17.6996 10.8908 17.7076 10.7554 17.7076ZM8.94733 13.3947C8.7192 13.7919 8.62732 14.2416 8.68396 14.6987C8.75319 15.2551 9.03196 15.754 9.47406 16.0992C9.91459 16.4443 10.4634 16.5947 11.0188 16.5254C11.5742 16.456 12.0721 16.1767 12.4167 15.7338C12.7612 15.2925 12.9114 14.7427 12.8421 14.1863C12.7965 13.819 12.6572 13.4732 12.4369 13.1816C12.2938 13.0429 12.165 12.887 12.047 12.7199C11.8597 12.4567 11.921 12.094 12.1837 11.908C12.4465 11.7205 12.8084 11.7834 12.9941 12.045C13.0381 12.1065 13.082 12.1624 13.1308 12.2176C13.1701 12.2443 13.2092 12.2812 13.2422 12.319C13.2627 12.3427 13.2791 12.3664 13.298 12.3901C13.6394 12.699 14.075 12.8882 14.5439 12.9228C15.6987 13.0095 16.7026 12.1383 16.7876 10.9846C16.8725 9.83081 16.0096 8.82191 14.8579 8.73679C14.4174 8.70369 13.9814 8.80953 13.6069 9.04123C13.4291 9.18782 13.1742 9.22034 12.9586 9.10212C12.677 8.94766 12.5715 8.58922 12.7256 8.3055C12.894 7.99973 12.9839 7.65392 12.9839 7.30085C12.9839 6.14394 12.0435 5.20022 10.8871 5.20022C9.73075 5.20022 8.79032 6.14236 8.79032 7.30085C8.79032 7.71539 8.91166 8.11412 9.13979 8.45772C9.1508 8.47506 9.16074 8.4962 9.17018 8.51354C9.78062 9.10776 10.1629 9.93373 10.1629 10.8526C10.1629 11.8787 9.68836 12.8008 8.94733 13.3998L8.94733 13.3947ZM6.90117 8.75202C5.74636 8.75202 4.80942 9.69415 4.80942 10.8526C4.80942 12.0111 5.74478 12.9533 6.90117 12.9533C8.05755 12.9533 8.99798 12.0111 8.99798 10.8526C8.99798 9.69415 8.05755 8.75202 6.90117 8.75202Z" fill="#FFFFFF"></path></svg>

<svg height="1em" style="flex:none;line-height:1" viewBox="0 0 24 24" width="1em" xmlns="http://www.w3.org/2000/svg"><title>302.AI</title><path d="M13.086 23.25c5.614 0 10.164-4.559 10.164-10.182 0-5.624-4.55-10.182-10.164-10.182-5.613 0-10.163 4.558-10.163 10.182 0 5.623 4.55 10.182 10.163 10.182z" fill="#3F3FAA"></path><path d="M10.914 21.114c5.613 0 10.163-4.559 10.163-10.182S16.527.75 10.914.75C5.3.75.75 5.309.75 10.932S5.3 21.114 10.914 21.114z" fill="#8E47FF"></path><path d="M10.755 17.708c-.722 0-1.416-.24-1.995-.69a3.25 3.25 0 01-1.23-2.177 3.248 3.248 0 01-.006-.782c-.201.04-.407.056-.618.056a3.265 3.265 0 01-3.261-3.262A3.27 3.27 0 017.65 7.67a3.27 3.27 0 013.241-3.638 3.266 3.266 0 013.242 3.577 3.269 3.269 0 012.694 5.693 3.227 3.227 0 01-2.365.782 3.26 3.26 0 01-.466-.066c0 .008.005.014.005.02a3.254 3.254 0 01-.664 2.41 3.235 3.235 0 01-2.583 1.259zm-1.808-4.313c-.228.397-.32.847-.263 1.304a2.092 2.092 0 002.335 1.826 2.086 2.086 0 001.398-.791 2.08 2.08 0 00.425-1.548 2.091 2.091 0 00-.405-1.004 3.253 3.253 0 01-.39-.462.58.58 0 11.947-.675c.044.062.088.117.137.173a.61.61 0 01.111.101l.056.071a2.096 2.096 0 003.49-1.405 2.096 2.096 0 00-1.93-2.248 2.076 2.076 0 00-1.251.304.579.579 0 01-.648.061.59.59 0 01-.233-.796A2.102 2.102 0 0010.888 5.2 2.1 2.1 0 009.14 8.457l.03.056c.61.594.993 1.42.993 2.339A3.273 3.273 0 018.947 13.4v-.005zM6.901 8.752a2.098 2.098 0 00-2.092 2.1c0 1.16.936 2.101 2.092 2.101a2.1 2.1 0 000-4.201z" fill="#fff"></path></svg>
